X: 36521
T: Serpentine, The
R: jig
M: 6/8
K: Gmajor
|:GDG B2G|GBe dBG|ABG E2D|GAB AGD|
GDG B2G|GBe dBG|Edc BAF|~G3 G3:|
|:dBd def|gdB GAB|edc BAF|GAB ABc|
dBd def|gdB GAB|edc BAF|~G3 G3:|
K:Dmaj
|:AFA dAd|f2a gfe|cde ABc|dfe dAG|AFA dAd|
f2a gfe|1 cde ABc|dfe d3:|2 ebg ecA|ded =cAF||

